assets/images/duck.svg

<svg width="173" height="186" viewBox="0 0 173 186" fill="none" xmlns="http://www.w3.org/2000/svg">
<path d="M25.3352 54.3771L25.1276 54.985C21.1195 54.534 17.2645 53.2329 13.8399 51.1754C10.4153 49.1179 7.50634 46.3552 5.32237 43.086C3.1384 39.8169 1.73373 36.1227 1.20947 32.2692C0.685208 28.4157 1.05438 24.4989 2.29043 20.8005L25.1353 27.8845C22.2328 36.5028 22.3029 45.7961 25.3352 54.3771Z" fill="#F1591B"/>
<path d="M170.824 93.1809C170.424 97.5615 169.604 101.903 168.375 106.15C168.039 107.293 167.702 108.449 167.31 109.589C166.097 113.125 164.605 116.57 162.847 119.896C154.642 135.315 140.953 147.496 124.251 154.24C107.549 160.985 88.9353 161.847 71.7713 156.673L69.441 155.966C79.4291 154.132 88.7436 149.769 96.4016 143.339C104.06 136.909 109.777 128.65 112.95 119.433L106.479 117.478C104.246 123.977 100.567 129.955 95.6955 135C90.8237 140.045 84.8744 144.039 78.2568 146.705C71.6393 149.371 64.5106 150.647 57.3612 150.446C50.2118 150.244 43.2113 148.569 36.8415 145.537C34.1263 144.243 31.5467 142.709 29.1362 140.956C21.5304 135.43 15.7952 127.905 12.6242 119.29C12.3959 118.673 12.1823 118.043 11.983 117.414C9.0796 108.296 9.17262 98.5192 12.2497 89.3858L12.2607 89.1421C12.6369 88.0551 13.0546 86.9965 13.4995 85.9658C16.8645 78.1706 22.4086 71.3835 29.5235 66.3495C30.9896 65.3023 32.5155 64.3337 34.0938 63.4483L35.0851 62.9219C40.276 70.6306 48.0128 76.4629 57.096 79.5144C66.1792 82.5659 76.1012 82.666 85.3235 79.7993L87.0615 81.0167C89.2615 82.51 91.5702 83.9071 93.9875 85.2079C96.4048 86.5088 98.9245 87.7495 101.546 88.9299C104.894 90.3924 108.334 91.658 111.849 92.7196L132.363 98.8187C138.761 100.767 145.563 101.272 152.236 100.294C158.909 99.3161 165.271 96.8813 170.824 93.1809ZM92.5507 113.31C93.632 111.382 94.5413 109.373 95.2688 107.303L96.3327 104.217L61.4749 93.6929L57.965 92.6398C55.2327 91.8172 52.3507 91.5171 49.4835 91.7567C46.6163 91.9963 43.8201 92.7709 41.2546 94.0361C38.689 95.3014 36.4043 97.0325 34.531 99.1308C32.6576 101.229 31.2322 103.653 30.3363 106.265C29.4403 108.877 29.0913 111.626 29.3091 114.353C29.5269 117.081 30.3074 119.735 31.6058 122.164C32.9043 124.592 34.6954 126.748 36.8768 128.507C39.0582 130.267 41.5873 131.596 44.3196 132.418C53.3674 135.134 63.1697 134.706 71.9951 131.209C80.8204 127.713 88.1009 121.373 92.5507 113.31Z" fill="#FDD734"/>
<path d="M55.9877 98.1019C52.6958 97.1073 49.1299 97.2321 45.8953 98.4551C44.6829 98.9182 43.5361 99.5266 42.4829 100.266C40.2204 101.836 38.4516 103.967 37.3728 106.422C36.294 108.877 35.9473 111.56 36.3713 114.174C36.7953 116.788 37.9734 119.23 39.7748 121.229C41.5762 123.229 43.9305 124.707 46.5763 125.5C54.4729 127.859 63.0431 127.341 70.6348 124.046C78.2266 120.751 84.3024 114.912 87.6908 107.655L59.4554 99.1527L55.9877 98.1019Z" fill="#FDD734"/>
<path d="M78.4331 184.845C43.2956 184.211 14.8887 182.373 14.9846 180.742C15.0805 179.11 43.6428 178.301 78.7803 178.936C113.918 179.57 142.325 181.407 142.229 183.039C142.133 184.671 113.571 185.48 78.4331 184.845Z" fill="#000014"/>
<path d="M68.5258 1.97757C75.8656 2.21965 82.9549 4.54498 88.8972 8.6595C94.8394 12.774 99.3677 18.4929 101.909 25.0931C104.451 31.6932 104.892 38.8781 103.177 45.7392C101.461 52.6002 97.6664 58.8294 92.2719 63.6388C86.8774 68.4482 80.1256 71.622 72.8704 72.7587C65.6152 73.8954 58.1824 72.9441 51.5119 70.0249C44.8414 67.1058 39.2328 62.35 35.3954 56.3589C31.558 50.3678 29.6641 43.4106 29.9532 36.3669C30.3408 26.9217 34.6225 17.9923 41.8563 11.543C49.0901 5.09375 58.6834 1.65296 68.5258 1.97757ZM50.9302 45.763C53.5963 45.8537 56.2345 45.1835 58.5112 43.8374C60.7879 42.4914 62.6009 40.5297 63.7208 38.2006C64.8406 35.8715 65.2172 33.2795 64.8028 30.7525C64.3884 28.2254 63.2017 25.8768 61.3927 24.0035C59.5837 22.1303 57.2337 20.8166 54.6399 20.2285C52.046 19.6405 49.3248 19.8046 46.8204 20.6999C44.316 21.5953 42.1408 23.1818 40.5699 25.2588C38.999 27.3358 38.103 29.81 37.9952 32.3686C37.9236 34.0674 38.2014 35.7614 38.8127 37.3539C39.424 38.9465 40.3569 40.4063 41.558 41.6501C42.7591 42.8939 44.205 43.8973 45.8131 44.603C47.4212 45.3087 49.16 45.7029 50.9302 45.763Z" fill="#FDD734"/>
<path d="M45.6803 29.9416C45.8256 30.4406 46.0764 30.9051 46.4173 31.3062C46.7582 31.7073 47.1818 32.0365 47.6618 32.2731C48.1418 32.5098 48.6679 32.649 49.2075 32.682C49.7471 32.715 50.2885 32.6412 50.7982 32.4651C51.308 32.289 51.775 32.0144 52.1704 31.6584C52.5658 31.3024 52.881 30.8725 53.0965 30.3955C53.312 29.9186 53.4232 29.4047 53.4231 28.8859C53.423 28.367 53.3117 27.8543 53.096 27.3796C54.4567 27.7559 55.6558 28.5366 56.5213 29.6098C57.3869 30.683 57.8743 31.9934 57.9136 33.353C57.953 34.7126 57.5422 36.0515 56.7403 37.1775C55.9384 38.3035 54.7866 39.1587 53.4502 39.6204C52.1138 40.0821 50.6615 40.1266 49.3017 39.7474C47.942 39.3682 46.7447 38.5849 45.8816 37.5098C45.0186 36.4348 44.5343 35.1233 44.4981 33.7636C44.4619 32.4039 44.8758 31.0659 45.6803 29.9416Z" fill="#000014"/>
</svg>

<svg width="173" height="186" fill="none" xmlns="http://www.w3.org/2000/svg"><path d="M25.335 54.377l-.207.608a28.006 28.006 0 01-11.288-3.81 26.866 26.866 0 01-8.518-8.089A25.707 25.707 0 011.21 32.269a25.363 25.363 0 011.08-11.468l22.845 7.084a40.535 40.535 0 00.2 26.492z" fill="#F1591B"/><path d="M170.824 93.18a69.335 69.335 0 01-2.449 12.97c-.336 1.143-.673 2.299-1.065 3.439a72.167 72.167 0 01-4.463 10.307c-8.205 15.419-21.894 27.6-38.596 34.344-16.702 6.745-35.316 7.607-52.48 2.433l-2.33-.707c9.988-1.834 19.303-6.197 26.96-12.627 7.659-6.43 13.376-14.689 16.549-23.906l-6.471-1.955c-2.233 6.499-5.912 12.477-10.784 17.522-4.871 5.045-10.82 9.039-17.438 11.705a52.06 52.06 0 01-20.896 3.741c-7.15-.202-14.15-1.877-20.52-4.909a48.782 48.782 0 01-7.705-4.581c-7.606-5.526-13.34-13.051-16.512-21.666a41.834 41.834 0 01-.641-1.876c-2.903-9.118-2.81-18.895.267-28.028l.01-.244a45.887 45.887 0 011.24-3.176c3.364-7.795 8.909-14.582 16.023-19.616a49.689 49.689 0 014.57-2.902l.992-.526c5.191 7.709 12.928 13.54 22.011 16.592 9.083 3.052 19.005 3.152 28.227.285l1.739 1.218a78.855 78.855 0 006.925 4.19 118.865 118.865 0 007.559 3.723 92.662 92.662 0 0010.303 3.79l20.514 6.099a45.596 45.596 0 0019.873 1.475 45.417 45.417 0 0018.588-7.113zm-78.273 20.13a38.117 38.117 0 002.718-6.007l1.064-3.086-34.858-10.524-3.51-1.053a22.844 22.844 0 00-8.482-.883 22.937 22.937 0 00-8.228 2.28 22.125 22.125 0 00-6.724 5.094 20.904 20.904 0 00-4.195 7.134 20.003 20.003 0 00-1.027 8.088 19.92 19.92 0 002.297 7.811 20.695 20.695 0 005.27 6.343 21.889 21.889 0 007.444 3.911c9.047 2.716 18.85 2.288 27.675-1.209 8.825-3.496 16.106-9.836 20.556-17.899z" fill="#FDD734"/><path d="M55.988 98.102a15.74 15.74 0 00-10.093.353 15.67 15.67 0 00-3.412 1.811c-2.263 1.57-4.031 3.701-5.11 6.156a13.763 13.763 0 00-1.002 7.752 13.847 13.847 0 003.404 7.055c1.801 2 4.156 3.478 6.801 4.271 7.897 2.359 16.467 1.841 24.059-1.454 7.592-3.295 13.667-9.134 17.056-16.391l-28.236-8.502-3.467-1.051z" fill="#FDD734"/><path d="M78.433 184.845c-35.137-.634-63.544-2.472-63.448-4.103.096-1.632 28.658-2.441 63.795-1.806 35.138.634 63.545 2.471 63.449 4.103-.096 1.632-28.658 2.441-63.796 1.806z" fill="#000014"/><path d="M68.526 1.978c7.34.242 14.429 2.567 20.371 6.681 5.942 4.115 10.47 9.834 13.012 16.434a34.24 34.24 0 011.268 20.646c-1.716 6.861-5.51 13.09-10.905 17.9-5.395 4.81-12.146 7.983-19.402 9.12-7.255 1.136-14.688.185-21.358-2.734-6.67-2.92-12.28-7.675-16.117-13.666-3.837-5.991-5.73-12.948-5.442-19.992.388-9.445 4.67-18.375 11.903-24.824 7.234-6.45 16.827-9.89 26.67-9.565zM50.93 45.763a13.98 13.98 0 007.581-1.926c2.277-1.346 4.09-3.307 5.21-5.636a12.498 12.498 0 001.082-7.448 12.668 12.668 0 00-3.41-6.75 13.54 13.54 0 00-6.753-3.774 14.044 14.044 0 00-7.82.47 13.54 13.54 0 00-6.25 4.56 12.667 12.667 0 00-2.575 7.11 12.44 12.44 0 00.818 4.985 12.78 12.78 0 002.745 4.296 13.39 13.39 0 004.255 2.953c1.608.706 3.347 1.1 5.117 1.16z" fill="#FDD734"/><path d="M45.68 29.942c.146.499.396.963.737 1.364.341.401.765.73 1.245.967a4.107 4.107 0 003.136.192 3.98 3.98 0 001.372-.807 3.8 3.8 0 00.926-1.263 3.64 3.64 0 000-3.016 6.68 6.68 0 013.425 2.23 6.245 6.245 0 011.393 3.744 6.275 6.275 0 01-1.174 3.825 6.73 6.73 0 01-3.29 2.442 6.984 6.984 0 01-4.148.127 6.678 6.678 0 01-3.42-2.237 6.245 6.245 0 01-1.384-3.746 6.277 6.277 0 011.182-3.822z" fill="#000014"/></svg>
